;[gain=1.5;name=ys1ex_07]
#opll_mode 0
#tempo 106
#title { "Holders of Power / Music from YS / Copyright (c) Nihon Falcom Corporation"}

@v15 = { ; 1
;       TL FB
        10, 0,
; AR DR SL RR KL MT AM VB EG KR DT
  15, 0, 0, 0, 0, 8, 0, 0, 0, 0, 1,
  15, 0, 0, 0, 0, 2, 0, 0, 0, 0, 1 }

@e10={0,0,[y2,10f:6y2,9f:6y2,8f:6y2,9f:6]}

;9A
;BCDEFG !
;123 !

9 l8 \1 @6  v4 o5
A l8 \0 @15@e10 v5 o4
F l8 \1 @5 v3 o5
9AF g6& ) g6& ) g6& ) g6 ) g+6& ) g+6 ) a+6& ) a+6 ) g%128g+3a+3 (
9AF [ ; L
9AF [g3a+3a3g+3]4
9AF [c24g24c24c24g+24c24c24g24c24 c24f24c24d+24d24d+24f24c24
9AF  g24c24c24g+24c24c24a+24c24c24>c24<c24a+24g+24g24f24]2
9AF [g3a+3a3g+3]4
9AF [c24g24c24c24g+24c24c24g24c24 c24f24c24d+24d24d+24f24c24
9AF  g24c24c24g+24c24c24a+24c24c24>c24<c24a+24g+24g24f24]2
9AF ]0

B l8 \1 @6  v4 o5
C l8 \0 @15@e10 v5 o4
G l8 \1 @5 v3 o5
BCG c6& ) c6& ) c6& ) c6 ) c+6& ) c+6 ) d+6& ) d+6 ) c%128c+3d+3 (
BCG [ ; L
BCG [c3d+3f3d+3]4
BCG < [c24g24c24c24g+24c24c24g24 c24c24f24c24d+24d24d+24f24
BCG    c24g24c24c24g+24c24c24a+24 c24c24>c24<c24a+24g+24g24f24]2 >
BCG [c3d+3f3d+3]4
BCG < [c24g24c24c24g+24c24c24g24 c24c24f24c24d+24d24d+24f24
BCG    c24g24c24c24g+24c24c24a+24 c24c24>c24<c24a+24g+24g24f24]2 >
BCG ]0

@e0={0,0,@10e@14d9520}

D l8 @13    v3 o3
E l8 @14@e0 v3 o4
DE c24g24c24c24g+24c24c24g24 ) c24c24f24 ) c24
DE d+24d24 ) d+24f24c24 ) g24c24c24 ) g+24c24c24 ) a+24
DE c24c24 ) >c24<c24a+24 ) g+24g24f24 ) c24g24c24 ) c24
DE g+24c24 ) c24g24c24c24f24c24d+24d24d+24f24c24g24c24
DE c24g+24c24c24a+24c24c24>c24<c24a+24g+24g24f24
DE [ ; L
DE [c24>c24<c24c24>c24<c24c24>c24<d+24>d+24<d+24d+24>d+24<d+24d+24>d+24<f24
DE >f24<f24f24>f24<f24f24>f24<g+24>g+24<g+24g+24>g+24<g+24g+24>g+24<]4
DE < [c24g24c24c24g+24c24c24g24c24c24f24c24d+24d24
DE d+24f24c24g24c24c24g+24c24c24a+24c24c24>c24<c24a+24g+24g24f24]2 >
DE [c24>c24<c24c24>c24<c24c24>c24<d+24>d+24<d+24
DE d+24>d+24<d+24d+24>d+24<f24>f24<f24f24>f24<f24f24>f24<g+24>g+24<g+24
DE g+24>g+24<g+24g+24>g+24<]4
DE [c24g24c24c24g+24c24c24g24c24c24f24c24d+24d24d+24f24c24g24c24c24g+24c24c24a+24
DE c24c24>c24<c24a+24g+24g24f24]2
DE ]0

@e1={0,0,f0=24}
@e2={1,0,f0=9}
@e3={1,0,f0=24}

1 l8 @1 v4 o5 g24c24 ) c24g24 ) c24c24 ( g24c24 ) g24c24 ) c24g24 ) c24c24 ) g24c24 ) 
1 [g24c24c24g24c24c24g24c24g24c24c24g24c24c24g24c24]3 
1 [
1 [g24c24c24g24c24c24g24c24 a+24d+24d+24a+24d+24d+24a+24d+24
1  a24f24f24a24f24f24a24f24>c24<g+24g+24>c24<g+24g+24>c24<g+24]4 
1 [g24c24c24g24c24c24g24c24]8 
1 [g24c24c24g24c24c24g24c24a+24d+24d+24a+24d+24d+24a+24d+24
1  a24f24f24a24f24f24a24f24>c24<g+24g+24>c24<g+24g+24>c24<g+24]4 
1 [g24c24c24g24c24c24g24c24]8 
1 ]0

2 l8 @2 r%256r%128 v8 o3 [)c12r12]4 
2 [ @2 ; L
2 [[c12r12c12r24c24c24rc12r12]3 c12r12c12r24c24c24r|c12c24c24]2 c24c24c24c24 
2 [c12r12]12 c12r12c12r12c24r12c24r12c24c24 [c12r12c12r24c24c24rc12r12]3 
2 c12r12c12r24c24c24rc12c24c24 [c12r12c12r24c24c24rc12r12]4 
2 [c12r12]14 
2 @3 [g%2&f%2&e%2&d+%2d+%2&d%2&c+%2&c%2|<a+%2&a%2&g+%2&g%2>]3
2 ]0

@e13={2,0,f}
@e14={2,0,fc}

3 l8 r%256r%128 n0 @13 v8 o3 c12 ) c12 ) c12 ) c12 ) c12 ) c12 ) c12  c12 
3 @14 [ v12 ; L
3 n0 [c24c24c24c24n10 c24n0 c24c24c24]7 c24
3 c24c24c24n10 c24
3 n0 
3 c24n10 c24c24n0 [c24c24c24c24n10 c24n0 c24c24c24]7 
3 c24c24c24c24 n10 c24c24c24c24 (( n6 [c24c24c24 c24c24c24c24 c24]7 ) n10 c24n0 c24 c24) 
3 n10 c24n0 c24 c24n10 c24c24
3 n0 
3 [c24c24c24c24 n10 c24n0 c24c24c24]7 c24c24c24
3 c24n10 c24n0 c24n10 c24 c24n0 [c24c24c24c24n10c24n0c24 c24c24]8 ( n6 [c24 c24c24c24c24 c24c24c24]6 
3 c24c24c24c24 c24c24c24c24 n10 c24c24c24c24 c24c24c24c24
3 ]0
