;[gain=1.5;name=ys2ex_06]
#opll_mode 0
#tempo 57
#title {"FEEL BLUE"}

; LEN   2  4  8 16 32 64   3  6 12 24 48 96  
; CLK  96 48 24 12  6  3  64 32 16  8  4  2   

@v15 = { ; Bell
;       TL FB
        41, 0,
; AR DR SL RR KL MT AM VB EG KR DT
  15, 2,14, 4, 0,14, 0, 0, 1, 1, 0,
  15, 3,15, 3, 0, 4, 0, 0, 0, 0, 0 }

@v16 = { ; Synthetic Oboe
;       TL FB
        12, 3,
; AR DR SL RR KL MT AM VB EG KR DT
  11, 2, 3, 0, 0, 9, 0, 0, 1, 0, 1,
  12, 3, 1,11, 0, 4, 0, 0, 1, 0, 1 }  

AB l8 
AB [
A @15 v11o5
B @2  v11o5
AB h20,2,1,2
AB [d12e12a6e12d12eg24f12|e4]2 
AB d4d12e12f12d4c12d12e12c4<b12>c12d12e12f12g12 a12b24r32>d96c12<b4 
A @16 v12 
B @5 v11 
AB h15,1,1,1
AB g6b24>c24c12<g12>c12d4<b6g12d12g12a+6g12d12g4e12g12b12a12e12a12e6a12
AB a12>c6<a6>c12 
A @15 v11
B @2  v11
AB [e24f24e24d+24e24<b24>|e24d+24e24<b24>e24d+24]2 e24>e24d+24e24d+24e24
AB ]0

CD l8 r12
CD [ \1
C @15 v7o5
D @2  v7o5
CD h20,2,1,2
CD [d12e12a6e12d12eg24f12|e4]2 
CD d4d12e12f12d4c12d12e12c4<b12>c12d12e12f12g12 a12b24r32>d96c12<b4 
C @16 v8
D @5 v7
CD h15,1,1,1
CD g6b24>c24c12<g12>c12d4<b6g12d12g12a+6g12d12g4e12g12b12a12e12a12e6a12
CD a12>c6<a6>c12 
C @15 v7
D @2  v7
CD [e24f24e24d+24e24<b24>|e24d+24e24<b24>e24d+24]2 e24>e24d+24e24d+24e24
CD ]0

@e10={0,0,@13fedc}

*0={@13v11q8}
*1={@1v12q8}
*2={@14@e10v12q8}

E l8 [
E o2
E [*0 a12 *1 >>a12a12<<]7 *0 g12 *1 >>g12g12<< 
E [*0 d12 *1 >>d12d12<<]2 
E [*0 c12 *1 >>c12c12<<]2 
E *0 <b12>c12d12e12f12g12f12g12a12b12g+12e12 
E [*0 c12 *1 >>c12c12<<]2 
E [*0 g12 *1 >>g12g12<<]2 
E [*0 g12 *1 >>a+12a+12<<]2 
E [*0 c12 *1 >>c12c12<<]2
E *0 a12 *1 >>a12a12<< *0 a12 *1 >>a12g12<< 
E [*0 f12 *1 >>f12f12<<]2 
E [*0 e12 *1 >>e12e12<<]4
E ]0

F l8 [
F o3
F [*2 a12 *1 >e12e12<]7 *2 g12 *1 >d12d12< 
F [*2 d12 *1 a12a12]2 
F [*2 c12 *1 g12g12]2 
F *2 <b12>c12d12e12f12g12f12g12a12b12g+12e12 
F [*2 c12 *1 g12g12]2 
F [*2 g12 *1 >d12d12<]2 
F [*2 g12 *1 >f12f12<]2 
F [*2 c12 *1 g12g12]2
F *2 a12 *1 >e12e12< *2 a12 *1 >e12d12< 
F [*2 f12 *1 >c12c12<]2 
F [*2 e12 *1 b12b12]4
F ]0

;         AL, AR, DR, SL, SR, RR
@r0={0,0,255,255, 12,191,  0, 255}
@r1={0,0,255,255,255,255,  1, 255}
@r3={0,0,255,255,  8,  0,  0, 255}
@r8={0,0,255,255,255,255,  1, 255}

1 l8 [
1 v10 @\-4 @8 h12,1,1,1
1 o4 a24>c24e24a24>c6<b24>c24<b24a24>c3<b24
1 >c24<b24a24e3b24>c24<b24a24>c12<b24>c24<b24a24g24d24<b24>d24<g24b24 
1 @0 > [a24f24d24<a24>d24f24]2 [g24e24c24<b24>c24e24]2 
1 @8 o3 g12a12b12>c12d12e12f12g24r32b96a12
1 g+6b12>c6d24e24f12e12f12g4d4d6e24f24f12e12d12
1 e4c4c12<b12>c12<a12b12>c12d12e12f12d6f12 
1 @0 < [g+24a24g+24g24g+24e24|g+24g24g+24e24g+24g24]2 <g+24>g+24g24g+24g24g+24
1 ]0

2 l8 [ @\9 
2 r16 v8 @1 h12,1,1,1
2 o4 a24>c24e24a24>c6<b24>c24<b24a24>c3<b24
2 >c24<b24a24e3b24>c24<b24a24>c12<b24>c24<b24a24g24d24<b24>d24<g24b24 
2 > @0 [a24f24d24<a24>d24f24]2 [g24e24c24<b24>c24e24]2 
2 @8 o3 g12a12b12>c12d12e12f12g24r32b96a12
2 g+6b12>c6&c48d24e24f12e12f12g4d4d6e24f24
2 f12e12d12e4c4c12<b12>c12<a12b12>c12d12e12f12d6f16 
2 @2 ) <e24g+24b24g+24b24>e24<b24>e24g+24e24g+24b24g+24b24
2 >e24<b24>e24g+24e24g+24b24g+24b48
2 ]0

3 l8 [ 
3 v10 @1
3 o3 [a12>c12e6c12<a12>ce24|c12c4<]2 
3 <b12b4a6>d12<a12f6g6>c12<g12e6d12e12f12g12a12b12>c12d24
3 r32f96e12e4 
3 @3 v10 o6
3 c24e24g24b24>c24e24g24e24c24<b24
3 g24e24d24g24b24>d24g24b24>d24<b24g24d24<b24g24d24g24
3 a+24>d24g24a+24>d24<a+24g24d24<a+24g24e24c24e24g24b24>c24
3 e24g24e24c24<b24g24e24c24e24a24>c24e24a24e24c24<a24
3 g24e24f24a24>c24f24a24>c24f24c24<a24f24c24<a24 
3 @0 v12 o4 
3 e24g+24b24g+24b24>e24<b24>e24g+24e24g+24b24g+24b24>e24<b24
3 >e24g+24e24g+24b24g+24b24>e24
3 ]0
