;[gain=1.5;name=ys2ex_19]
#opll_mode 1
#tempo 75
#title { "BELL SOUND"}

@v15 = { 
;       TL FB
        36, 7,
; AR DR SL RR KL MT AM VB EG KR DT
  13, 2,14, 2, 1, 4, 0, 0, 1, 0, 0,
  15, 3,15, 2, 0,15, 0, 0, 1, 0, 0 }

9A l8 v14 @15 h24,1,0,2
9 \1
9 [o2 b6|e3(((]4 ((( e3
A [o2 f+6|<b3>(((]4 ((( <b3>

BC l8 v12 @15 
B r24 [o2 g6d3((]3 ((g6(d4&(d24
B \1
C \2
C r24 [o2 d6<a3>((]3 ((d6(<a4&(a24

DE l8 v12 @15 
D [o1 a6&a24(a3((]3 a24((a3
D \1
E \2
E [o1 e6&e24(e3((]3 e24((e3