;[gain=1.0;name=ys2ex_02]
#opll_mode 0
#tempo 75
#title { "LILLA"}

@v15 = { ; Violin
;       TL FB
        31, 7,
; AR DR SL RR KL MT AM VB EG KR DT
  14, 5, 2, 0, 1,10, 0, 0, 1, 0, 0,
   9, 1, 1, 0, 0, 2, 0, 0, 0, 0, 1 }

;*0={@6o2}
;*1={@9o6}

*0={@15o2 h40,3,0,2}
*1={@15o5 h40,2,1,2}

; ABC !

A l8 v14 *0
A [d12a12>d4<a12>d12<|a12]4 >c+12c12 <g12c4g12>c12<g12 
A [c12g12>c4<g12>c12<g12]3 
A [f12>c12f12c12<]3 f12>f12<e12>e12< 
A [d12a12>d12<a12]3 d12>d12<c12>c12< 
A < [a+12a+6a+6a+6a+12]2 a1&([a24&(]8 

C l8 v15 *1
C d2&d12c+24d24<b12a12g12b12a12g12f+12
C a12g12f+12e12g12f+12e12d12f+12e12d12&d2>c2&c12
C <b24>c24d12c12e12c12f12e12d12f12e12d12c12e12d12c12
C <b12>d12c12<b12>c12d12e12c4 
C [e12d24<a24&a4b12>c12 d12e12d12c12d24<a24&a3>]2 e12d24<a+24&a+4
C >c12d12e12f6d6<a+6>c12d12e1&([e24&(]8 

E l8 v13 *1
E r12 d2&d12c+24d24<b12a12g12b12a12
E g12f+12a12g12f+12e12g12f+12e12d12f+12e12d12&d2
E >c2&c12<b24>c24d12c12e12c12f12e12d12f12e12d12c12e12
E d12c12<b12>d12c12<b12>c12d12e12c4 
E [e12d24<a24&a4b12>c12d12e12d12c12d24<a24&a3>]2 e12d24<a+24&a+4
E >c12d12e12f6d6<a+6>c12d12e1&([e24&(]6 

; @r<number> = { Mode,Noise,AL,AR,DR,SL,SR,RR }
@r1= { 0, 0, 255, 255, 16,224, 1, 8 }
@r9= { 0, 0,  48,  48,  2,248, 1, 8 }
@r11={ 0, 0, 255, 255, 24,192, 1, 8 }

1 l8 v11 @11 r24 o4
1 a24>d24e24f+24e24d24<a24f+24e24d24e24f+24a24
1 >c+24f+24g24f+24e24d24f+24e24d24c+24e24d24c+24<b24>d24c+24
1 <b24a24d24e24f+24a24>d24e24f+24a24>d24c+24d24<a24f+24e24
1 d24<a24f+24e24d24e24f+24a24>d24e24f+24e24f+24d24c+24<a24
1 f+24c+24r24g24>c24d24e24d24c24<g24e24d24c24d24e24g24
1 b24>c24g24f24e24d24f24e24d24c24e24d24c24<b24>d24c24
1 <b24g24e24g24b24>c24e24g24b24>c24e24d24c24<b24g24e24
1 d24c24g24e24g24b24>c24<b24>c24e24g24e24d24c24<b24g24>e24<b24 
1 @11 o6 v9  
1 [e12e6e6e12e12e12]4 [f12f6f6f6f12]2 e12e6e6e6e12e%128

2 l8 v8 @9 @\-9 r
2 o6 f+2&f+12e24f+24g12f+12e12g12f+12e12d12
2 f+12e12d12c+12e12d12c+12<b12>d12c+12<a12&a2>e2&e12
2 d24e24f12e12g12e12a12g12f12a12g12f12e12g12f12e12
2 d12f12e12d12e12f12g12e 
2 @11 o6 v10
2 [c12c6c6c12c12c12]4 [d12d6d6d6d12]2 c+12c+6c+6c+6c+12c+%128

3 l8 v10 @9 h40,2,1,2
3 o6 f+2&f+12e24f+24g12f+12e12g12f+12e12d12
3 f+12e12d12c+12e12d12c+12<b12>d12c+12<a12&a2>e2&e12
3 d24e24f12e12g12e12a12g12f12a12g12f12e12g12f12e12
3 d12f12e12d12e12f12g12e4 
3 [o4 a12f24f24&f4e12f12g12a12a12f12a24|c24&c3]2 d24&d3g12f24
3 f24&f4f12a+12>c12d6<a+6f12d12f12a+12 
3 @1 a1&([a24&((]8 
