;[gain=1.0;name=ys2ex_16]
#opll_mode 1
#tempo 66;
#title { "TENDER PEOPLE"}

@v15 = { ; Bell
;       TL FB
        41, 0,
; AR DR SL RR KL MT AM VB EG KR DT
  15, 4,14, 0, 0,14, 0, 0, 0, 0, 0,
  15, 2,15, 7, 0, 2, 0, 0, 1, 1, 0 }

@v16 = { ; Lead
;       TL FB
        23, 3,
; AR DR SL RR KL MT AM VB EG KR DT
   8, 4, 3, 0, 0,10, 0, 0, 0, 1, 1,
   6, 2, 0, 7, 0, 2, 0, 0, 1, 0, 1 }

@v17 = { ; PIANO
;       TL FB
        34, 7,
; AR DR SL RR KL MT AM VB EG KR DT
  14, 6, 1, 6, 0, 1, 0, 0, 1, 0, 0,
  13, 5,10, 5, 0, 1, 0, 0, 0, 0, 0 }

@v18 = { ; Lead
;       TL FB
        28, 3,
; AR DR SL RR KL MT AM VB EG KR DT
  10, 3, 5, 0, 0, 5, 0, 0, 0, 0, 1,
   8, 0, 0, 7, 0, 1, 0, 0, 1, 0, 1 }

@e0={0,0,@13c0=12} ; Bass Higher
@e1={0,0,ef} ; Melody Lower

;DEF123 !

9A l8
9A [
9 @15 o6 v12\1
A @2  o6 v10
9A h42,2,1,2
9A [c12<b6>>> c12<b6>b6<< c12<b6|>c6e12d12c12]3
9A a6b4>c12<c12e12g12b12>c12e12g12b12>c12e12g12>c12d12<b12g12

9 @16 o6 v13 \1
A @16 o6 v0
9A h45,3,0,3
9A a3&a12f12g12
9A a12b12g6e6d4e3&e12c12d12e12<a6b12>c6e12f12
9A g12a3&a12f12g12a12b6g12e6d6<b12>e3&e12

9 @17 v13 o6 \0
A @17 v0 o6 
9A b12a12e12g12e12b12g12e12f12g12e12

9 @16 o4 v13 \0
A @16 o4 v0
9A a6c12d12e12f12g12a12b12<b12>c12d12f12g12d12f12g12e12b12g12
9A >e12<b12g12>c12<b12e12a12e6g12 e12d12

9 @18 o5 v13 \0
A @18 o5 v0
9A h45,3,0,3
9A c6d12e12<a3>c6d12e12<g+12>c12d12c12e6f12g12e6g+12b12a6g+12
9A a12>c6d12e12<a2>d12e12<g+2>d12e12
9A ]0

BC l8 [
B @15 o5v12 \2
C @2  o5v10
BC h42,2,1,2
BC a12f6&f24(>>> c12<b6>b12r24)<<<
BC a12f6a6>c12<a12a12g12g6&g24(>>> c12<b6>b12r24)<<<
BC a12e6a6>c12<a12e12a12f6&f24(>>> c12<b6>b12r24)<<<
BC g12g6f6g4g12<g12b12>c12e12g12b12>c12e12g12b12>c12e12<b12g12e12

B @16 o6 v13\0
C @16 o6 v0
BC h45,3,0,3
BC a2f12g12a12b12g6e6d4e3&e12
BC c12d12e12<a6b12>c6e12f12g12a3&a12f12g12a12b6
BC g12e6d6<b12>e6&e12.r12.

B @17 v12 o6 \1
C @17 v0 o6
BC b12a12e12g12e12b12g12e12f12g12r12

B @16 o4 v10 \0 
C @16 o4 v0
BC a6c12d12e12f12g12a12b12<b12>c12d12
BC f12g12d12f12g12e12b12g12>e12<b12g12>c12<b12e12a12e6g12e12r12

B @18 o5 v11 \0
C @18 o5 v0 
BC c6d12e12<a3>c6d12e12<g+12>c12d12c12
BC e6f12g12e6g+12b12a6g+12a12>c6d12e12<a2>d12e12<g+2>r12
BC ]0

DE l8 [
D @13    o3v13 h12,3,1,2
E @14@e0 o4v14 h12,3,1,2
DE [d12d12r12d6<a12>d12f12g12g12r12g6|
DE <g12a12b12>c12c12r12c6e12c12<b12a12a12r12a6>c12<b12a12>]2
DE f12d12<b12>c12c12r12c6<b12>c12e12c12c12r12
DE c6<g12g12g12>d12d12r12d6<a12>d12f12g12g12r12g6<g12
DE a12b12>c12c12r12c6<e12f12g12a12a12r12a6b12>c12e12
DE d12d12r12d6<a12>d12f12g12g12r12g6<g12a12b12>c12c12
DE r12c12<b12b12r12b12a12a12r12a12g12g12r12g12f12f12
DE r12f6>f12c12<a12g12g12r12g6>g12d12<g12>c12c12r12c6
DE <b12>c12d12e12<a12r12a6a12>a12g12f12f12r12f6f6f12
DE f12f12r12f6f12f12f12c12c12r12c6e6e12<a12a12r12
DE a6>a12<g12>g12f12f12r12f12>f12<f6f6f12r12f6>f12<f12g12
DE ]0

;        AL  AR DR SL SR RR
@r2={1,0,255,255,24,192,0,255}
@r9={1,0,128,48, 0,255,0,255}

1 l8 [
1 @9 o4 h12,1,1,1 v11
1 [f12d6c12d12f12a12>c12f12d6c12<b12>c12d12f12e12c6|<g12b12>c12e12g12e12c6<a12e12a12g12e12]2 
1 <<g6e6g6c12e12g12b12>c12e12g12
1 f12<a12>d12f12a12d6f12g6d6<b6g6>c12<e12g12b12>c12<g12b12>c12
1 e12c12<g12>c12<g12e12a12>c12f12<a12>d12f12a12d6f12g12
1 d6<b6b6g12>c12<c12e12g12>c12g12e12c12e12c12g12e12c12d12e12c12
1 >f6<a12b12>c12d12e12f12g12<g12a12b12>d12
1 c12<b12>c12e12<b12>g12e12b12g12e12f12g12<b12>d12c12<b12
1 >d12c12<b12>a3c6d12e12
1 g+3c12e12g+12>c12<b12g12a12e12g12b12>d6e6c6<a6b6 
1 >[c4f6e12|<a12>c12]2 f12g12
1 ]0

2 l8 [
2 @2 o5 v11 \1
2 d24a24>d24e24f24e24d24<a24f24e24d24e24f24
2 a24>d24f24e24d24e24f24e24d24c24<a24>d24c24<a24f24d24
2 c24<a24f24e24f24e24d24e24d24c24<b24g24>c24e24g24>c24
2 e24g24b24a24b24>c24d24e12a24g24a24e24c24<a24e24c24
2 <a24g24f24<f24a24>c24e24d24c24<a24d24e24f24a24>d24e24
2 f24a24>c24d24e24f24a24>c24d24e24f24d24<b24g24f24d24
2 <b24g24c24 << b24>c24e24g24b24>c24e24<e24g24b24>c24e24g24
2 b24>c24<c24e24g24b24>c24e24g24b24>c24e24g24b24>c24<b24
2 g24e24 
2 v9 @9 o4
2 f6<a12>d12f12a12d6f12g6d6<b6b6>c12
2 <e12g12b12>c12<g12b12>c12e12c12<g12>c12<g12e12a12>c12f12
2 <a12>d12f12a12d6f12g12d6<b6b6g12>c12<c12e12g12>c12
2 g12e12c12e12c12g12e12c12d12e12c12>f6<a12b12>c12d12
2 e12f12g12<g12a12b12>d12c12<b12>c12e12<b12>g12e12b12g12
2 e12f12g12<b12>d12c12<b12>d12c12<b12>a3c6d12e12g+3c12
2 e12g+12>c12<b12g12a12e12g12b12>d6e6c12e12<a6b6 
2 >[c4f6e12|<a12>c12]2 f12
2 ]0

@r5={2,0,255,255,32,192,6,8}
@r6={2,0,255,255,32,192,8,8}

*0={@r5 v13}
*1={@r6 v12}
*2={v11}; @v95
*3={v12}; @v111

3 [
3 l8 \-1 v10 @2 r16 o5 d24a24>d24e24f24e24d24<a24f48 
3 *0 n0 c24r24 n10 c24 
3 @2 v10 f16a24>d24f24e24d24e24f24e24d24c24<a24>d48 
3 *0 n20 c24r24 n0 c24r24 n10 c24 
3 @2 v10 o4 a16f24e24f24e24d24e24d24c24<b24g48 
3 *0 n0 c24r24 n10 c24 
3 @2 v10 o5 c16e24g24b24a24b24>c24d24e12a24g24a48 
3 *0 n0 c24r24 n10 c24c24c24c24 
3 @2 v10 o4 g16f24<f24a24>c24e24d24c24<a24d48 
3 *0 n0 c24r24 n10 c24 
3 @2 v10 >d16e24f24a24>c24d24e24f24a24>c24d24e24f48 
3 *0 n20 c24r24 n0 c24r24 n10 c24 
3 @2 v10 o4 b16g24c24 << b24>c24e24g24b24>c24e24<e24g24b48 
3 *0 n10 c24
3 @2 v10 >e16g24b24>c24<c24e24g24b24>c24e24g24b24>c24e24g48 
3 *1 n10 c24r24c24c24 

3 [n0 c24 *2 c24c24c24 *3 n10 c24 | n0 *2 c24c24c24 *3]16 r24c24c24 
3 [n0 c24 *2 c24c24c24 *3 n10 c24 n0 *2 c24c24c24 *3 n0 
3 c24 *2 c24c24c24 *3 | n10 c24 n0 *2 c24 *3 n30 c24 n0 *2 c24 *3 ]4 
3 n10 c24c24c24c24 
3 [n0 c24 *2 c24c24c24 *3 n10 c24 n0 *2 c24c24c24 *3 ]11 n10 [c24]8 
3 ]0