;[gain=1.0;name=ys2_19]
#opll_mode 1
#tempo 75
#title { "BELL SOUND"}

@v15 = { ; MAIN
;       TL FB
        31, 6,
; AR DR SL RR KL MT AM VB EG KR DT
  14, 2, 5, 2, 1, 4, 0, 0, 0, 0, 0,
  15, 3, 7, 2, 0,15, 0, 0, 0, 0, 0 }


A l8 v14 @15 [o2 b6|e3(((]4 ((( e3&

B l8 v12 @15 r24 [o2 g6d3((]3 ((g6(d4&(d24&

C l8 v12 @15 [o1 a6&a24(a3((]3 a24((a3&
