;[gain=1.5;name=ys2_06]
#opll_mode 0
#tempo 57
#title {"FEEL BLUE"}

; LEN   2  4  8 16 32 64   3  6 12 24 48 96  
; CLK  96 48 24 12  6  3  64 32 16  8  4  2   

@v15 = { ; Bell
;       TL FB
        19, 6,
; AR DR SL RR KL MT AM VB EG KR DT
  14, 2, 7, 3, 0, 7, 0, 0, 1, 0, 1,
  15, 4, 6, 3, 0, 2, 0, 0, 0, 0, 0 }

@v16 = { ; Synthetic Oboe
;       TL FB
        29, 4,
; AR DR SL RR KL MT AM VB EG KR DT
  14, 0, 0, 0, 0, 9, 0, 0, 0, 0, 1,
   8, 2, 1, 1, 0, 4, 0, 0, 0, 0, 0 }  
  

*10={@15o6v12}
;*11={@16o4v12}
*12={@15o6v12}

;*10={@11o6v12}
*11={@5o5v13}
;*12={@11o6v12}

AB l8 
B r12 
AB [
AB *10
B ((
AB [d12e12a6e12d12eg24f12|e4]2 
AB d4d12e12f12d4c12d12e12c4<b12>c12d12e12f12g12 a12b24r32>d96c12<b4 
AB *11
B ((
AB g6b24>c24c12<g12>c12d4<b6g12d12g12a+6g12d12g4e12g12b12a12e12a12e6a12
AB a12>c6<a6>c12 
AB *12
B ((
AB [e24f24e24d+24e24<b24>|e24d+24e24<b24>e24d+24]2 e24>e24d+24e24d+24e24
AB ]0

D l8 [v11 @4
D o5 a24>c24e24a24>c6<b24>c24<b24a24>c3<b24
D >c24<b24a24e3b24>c24<b24a24>c12<b24>c24<b24a24g24d24<b24>d24<g24b24 
D > [a24f24d24<a24>d24f24]2 [g24e24c24<b24>c24e24]2 
D o4 g12a12b12>c12d12e12f12g24r32b96a12
D g+6b12>c6d24e24f12e12f12g4d4d6e24f24f12e12d12
D e4c4c12<b12>c12<a12b12>c12d12e12f12d6f12 
D < [g+24a24g+24g24g+24e24|g+24g24g+24e24g+24g24]2 <g+24>g+24g24g+24g24g+24
D ]0

E l8 [ @4
E r16 v9
E o5 a24>c24e24a24>c6<b24>c24<b24a24>c3<b24
E >c24<b24a24e3b24>c24<b24a24>c12<b24>c24<b24a24g24d24<b24>d24<g24b24 
E > [a24f24d24<a24>d24f24]2 [g24e24c24<b24>c24e24]2 
E o4 g12a12b12>c12d12e12f12g24r32b96a12
E g+6b12>c6&c48d24e24f12e12f12g4d4d6e24f24
E f12e12d12e4c4c12<b12>c12<a12b12>c12d12e12f12d6f16 
E v10 <e24g+24b24g+24b24>e24<b24>e24g+24e24g+24b24g+24b24
E >e24<b24>e24g+24e24g+24b24g+24b48
E ]0

9 l8 [ 
9 v11 @4
9 o4 [a12>c12e6c12<a12>ce24|c12c4]2 
9 <b12b4a6>d12<a12f6g6>c12<g12e6d12e12f12g12a12b12>c12d24
9 r32f96e12e4 
9 v11 o7 
9 c24e24g24b24>c24e24g24e24c24<b24
9 g24e24d24g24b24>d24g24b24>d24<b24g24d24<b24g24d24g24
9 a+24>d24g24a+24>d24<a+24g24d24<a+24g24e24c24e24g24b24>c24
9 e24g24e24c24<b24g24e24c24e24a24>c24e24a24e24c24<a24
9 g24e24f24a24>c24f24a24>c24f24c24<a24f24c24<a24 
9 v13 o5 
9 e24g+24b24g+24b24>e24<b24>e24g+24e24g+24b24g+24b24>e24<b24
9 >e24g+24e24g+24b24g+24b24>e24
9 ]0

*0={@13v13q8}
*2={@1v13}
*1={@1v13q8}

F l8 [ v12 
F o2
F [*0 a12 *1 >>a12a12<<]7 *0 g12 *1 >>g12g12<< 
F [*0 d12 *1 >>d12d12<<]2 
F [*0 c12 *1 >>c12c12<<]2 
F *0 <b12>c12d12e12f12g12f12g12a12b12g+12e12 
F [*0 c12 *1 >>c12c12<<]2 
F [*0 g12 *1 >>g12g12<<]2 
F [*0 g12 *1 >>a+12a+12<<]2 
F [*0 c12 *1 >>c12c12<<]2
F *0 a12 *1 >>a12a12<< *0 a12 *1 >>a12g12<< 
F [*0 f12 *1 >>f12f12<<]2 
F [*0 e12 *1 >>e12e12<<]4
F ]0

G l8 [ v12 
G o2
G [*2 a12 *1 >>e12e12<<]7 *2 g12 *1 >>d12d12<< 
G [*2 d12 *1 >a12a12<]2 
G [*2 c12 *1 >g12g12<]2 
G *2 <b12>c12d12e12f12g12f12g12a12b12g+12e12 
G [*2 c12 *1 >g12g12<]2 
G [*2 g12 *1 >>d12d12<<]2 
G [*2 g12 *1 >>f12f12<<]2 
G [*2 c12 *1 >g12g12<]2
G *2 a12 *1 >>e12e12<< *2 a12 *1 >>e12d12<< 
G [*2 f12 *1 >>c12c12<<]2 
G [*2 e12 *1 >b12b12<]4
G ]0

