;[gain=1.5;name=ys2_07]
#opll_mode 1
#tempo 77 ; 77.5
#title {"RUINS OF MOONDORIA"}

; LEN   2  4  8 16 32 64   3  6 12 24 48 96  
; CLK  96 48 24 12  6  3  64 32 16  8  4  2   

@v15 = { ; NOISE (w31)
;       TL FB
         0, 7,
; AR DR SL RR KL MT AM VB EG KR DT
  15, 0, 0, 0, 0, 0, 0, 0, 1, 0, 0,
  12, 4, 1, 2, 0, 0, 0, 0, 0, 0, 0 }

@v16 = { ; NOISE (w9)
;       TL FB
         5, 7,
; AR DR SL RR KL MT AM VB EG KR DT
  14, 0, 0, 0, 0, 0, 0, 0, 1, 0, 0,
  15, 3,10, 2, 0, 0, 0, 0, 1, 0, 0 }
  
@v17 = { ; B.D
;       TL FB
         8, 0,
; AR DR SL RR KL MT AM VB EG KR DT
  12, 9, 0,10, 0, 1, 0, 0, 0, 0, 0,
  15, 5, 5, 6, 0, 2, 0, 0, 1, 0, 0 }  
  
; 9ABCDE !  
  
A l8 [v12 @5q8
A o4 [g24f24d+24f24d+24d24d+24d24c24d24c24<a+24>c24d24d+24f24]4 
A d+24f24d+24d24c24d24c24<a+24>c24<a+24
A >c24d24d+24f24g24d+24 [g24f24d+24f24d+24d24d+24d24c24
A d24c24<a+24>c24d24d+24f24]3 d+24f24d+24d24c24d24c24<a+24
A >c24<a+24>c24d24d+24f24g24d+24g24f24d+24f24d+24d24d+24d24
A c24d24c24<a+24>c24d24d+24f24r%176 
A @6 v12 o6q6 f24f24d+24d+24d24
A d24c24c24<a+24a+24>g+24g+24g24g24f24f24d+24d+24d24d24c24
A <a+24>c24d24d+24f24g24g24f24f24d+24d+24d24d24f24f24d+24
A d+24d24d24c24c24 
A @17 o2q8 v0
A [r2r24a12f24]2 r%176
A a24a24g24g24e24e24<b24b24r12
A ]0

C l8 [
C v13 @14q6 
C o3
C [c24c24c24c24c24d+12c12c24c24c24c24<a+12>c24&]4 <[a+24]10 
C >c24c24d24d24d+24f24d+24c24c24c24c24
C d+12c12c24c24c24c24<a+12>c24& [c24c24c24c24c24d+12
C c12c24c24c24c24<a+12>c24&]2 <[a+24]10 >c24c24d24d24
C d+24f24d+24c24c24c24c24<a+12>c12c24c24c24c24<a+ 
C [a+24]16 [g+24]16 [g24]16 >c24c24c24c24c24d+12c12c24d+24
C c24<a+24>c24d24d+24 [f24]12 g24g+12c12 [c24]11 d+24g12
C f12 [f24]7 [d24]8 [g24]8 g24g+24g24f24d+24f24e24d24
C ]0

D l8 [ v1 r12)[r12)r12)]3 [r12)]2 [r12]5 
D o5 c6
D v13 @4 o6 g3&g12 
D [f12d+24fga+g12&g3|f3&f12d+12d12<a+12>cdd+12dd+f24g24&g3&g12]2 
D f6d+6d6<a+6>c2g6 
D @4 
D fgg+12a+>cd12fd+24&d+3d12d+12f3g6f6d+%128fgg+12b12
D g+12g24fd+fg12cdd+12f3g6g+6a+6&a+b
D g+12g12d+12
D ]0

E l8 [ v10 @4 
E o7[a+24g+24g24g+24g24f24g24f24d+24f24d+24d24d+24f24g24g+24]4 
E g24g+24g24f24d+24f24d+24d24d+24d24d+24
E f24g24g+24a+24g24 
E [a+24g+24g24g+24g24f24g24f24d+24f24d+24d24d+24f24g24g+24]3 
E g24g+24g24f24d+24f24d+24d24d+24
E d24d+24f24g24g+24a+24g24a+24g+24g24g+24g24f24g24f24d+24
E f24d+24d24d+24f24g24g+24 
E @4 v11 
E   <dd+f12gg+a+12>d c24&c3<b12>c12d3d+6d6c%128 
E ( <fgg+12b12g+12g24 fd+fg12cdd+12f3g6g+6a+6&a+bg+12g12d+12
E ]0

9 l8 [ @15 o8
9 v3
9 c12 ) c12 ) c12 ) c12 ) c12 ) c12 ) c12 ) c12 ) c12 ) [c12]4 
9 o3 @16v14 c4
9 @4 v11 r12
9 o6 g3&g12 [f12d+24fga+g12&g3|f3&f12d+12
9 d12<a+12>cdd+12dd+f24g24&g3&g12]2 f6d+6
9 d6<a+6>c2g6 
9 @4 
9 fgg+12a+>cd12fd+24&d+3d12
9 d+12f3g6f6d+%128fgg+12b12g+12g24fd+fg12c
9 dd+12f3g6g+6a+6&a+bg+12g12
9 ]0

F l8 [ v14
F [b24 h24 s24 h24 b24b24s24b24h24b24s24b24b24h24s24h24]2 
F [
F [b24h24s24h24b24b24s24b24h24b24s24b24b24|h24s24h24]4 | s24s24s24]2 m24m24m24 
F [b24h24s24h24b24b24s24|h24b24b24s24b24b24h24s24h24]4 b24b24h24s24b24b24h24s24s24 
F [b24 [h24 s24b24h24s24|b24b24b24]2 m24m24]2 b24h24s24h24b24b24s24 
F h24b24h24s24b24b24 h24s24s24b24 
F h24s24h24b24h24b24b24
F m24m24m24m24m24m24m24m24
F ]0
