;[gain=1.5;name=ys2_16]
#opll_mode 1
#tempo 66;
#title { "TENDER PEOPLE"}

@v15 = { ; Bell
;       TL FB
        20, 6,
; AR DR SL RR KL MT AM VB EG KR DT
  14, 2, 8, 3, 0, 7, 0, 0, 1, 0, 1,
  15, 4, 6, 3, 0, 2, 0, 0, 0, 0, 0 }

@v16 = { ; PIANO
;       TL FB
        29, 5,
; AR DR SL RR KL MT AM VB EG KR DT
  12, 0, 0, 0, 0, 3, 0, 0, 1, 0, 0,
  11, 5, 2, 5, 0, 1, 0, 1, 0, 0, 0 }

;ABCEF9 !

A l8  
A [ v11 
A @15  
A o5 [c12<b6)>>> c12<b6>b6(<< c12<b6|>c6e12d12c12]3 
A a6b4>c12<c12e12g12b12>c12e12g12b12>c12e12g12>c12d12<b12g12 

A @0 o7 v15
A a3&a12f12g12
A a12b12g6e6d4e3&e12c12d12e12<a6b12>c6e12f12
A g12a3&a12f12g12a12b6g12e6d6<b12>e3&e12 
A @16 o5 v12
A b12a12e12g12e12b12g12e12f12g12e12 
A @6 o5 v11 
A o5 a6c12d12e12f12g12a12b12<b12>c12d12f12g12d12f12g12e12b12g12
A >e12<b12g12>c12<b12e12a12e6g12e12d12 
A @8 o5 v13
A c6d12e12<a3>c6d12e12<g+12>c12d12c12e6f12g12e6g+12b12a6g+12
A a12>c6d12e12<a2>d12e12<g+2>d12e12
A ]0

B l8 [ 
B @15 v11
B o5 a12f6&f24(>>> c12<b6>b12r24)<<< 
B a12f6a6>c12<a12a12g12g6&g24(>>> c12<b6>b12r24)<<< 
B a12e6a6>c12<a12e12a12f6&f24(>>> c12<b6>b12r24)<<<
B g12g6f6g4g12<g12b12>c12e12g12b12>c12e12g12b12>c12e12<b12g12e12 

B @0 o7 v15 ( 
B a2f12g12a12b12g6e6d4e3&e12
B c12d12e12<a6b12>c6e12f12g12a3&a12f12g12a12b6
B g12e6d6<b12>e3&e12
B @16 o5 v12 ((
B b12a12e12g12e12b12g12e12f12g12e12 
B @6 o5 v11 (((
B a6c12d12e12f12g12a12b12<b12>c12d12
B f12g12d12f12g12e12b12g12>e12<b12g12>c12<b12e12a12e6g12e12d12 
B @8 o5 v13 ((( 
B c6d12e12<a3>c6d12e12<g+12>c12d12c12
B e6f12g12e6g+12b12a6g+12a12>c6d12e12<a2>d12e12<g+2>d12
B ]0

C l8 [ 
C @13o3v13
C [d12d12r12d6<a12>d12f12g12g12r12g6|
C <g12a12b12>c12c12r12c6e12c12<b12a12a12r12a6>c12<b12a12>]2 
C f12d12<b12>c12c12r12c6<b12>c12e12c12c12r12
C c6<g12g12g12>d12d12r12d6<a12>d12f12g12g12r12g6<g12
C a12b12>c12c12r12c6<e12f12g12a12a12r12a6b12>c12e12
C d12d12r12d6<a12>d12f12g12g12r12g6<g12a12b12>c12c12
C r12c12<b12b12r12b12a12a12r12a12g12g12r12g12f12f12
C r12f6>f12c12<a12g12g12r12g6>g12d12<g12>c12c12r12c6
C <b12>c12d12e12<a12r12a6a12>a12g12f12f12r12f6f6f12
C f12f12r12f6f12f12f12c12c12r12c6e6e12<a12a12r12
C a6>a12<g12>g12(f12f12r12f12>f12<f6f6f12r12f6>f12
C <f12g12
C ]0

D l8 [
D @4 o5 v12
D [f12d6c12d12f12a12>c12f12d6c12<b12>c12d12f12e12c6|<g12b12>c12e12g12e12c6<a12e12a12g12e12]2 
D <<g6e6g6c12e12g12b12>c12e12g12
D f12<a12>d12f12a12d6f12g6d6<b6g6>c12<e12g12b12>c12<g12b12>c12
D e12c12<g12>c12<g12e12a12>c12f12<a12>d12f12a12d6f12g12
D d6<b6b6g12>c12<c12e12g12>c12g12e12c12e12c12g12e12c12d12e12c12
D >f6<a12b12>c12d12e12f12g12<g12a12b12>d12
D c12<b12>c12e12<b12>g12e12b12g12e12f12g12<b12>d12c12<b12
D >d12c12<b12>a3c6d12e12
D g+3c12e12g+12>c12<b12g12a12e12g12b12>d6e6c6<a6b6 
D >[c4f6e12|<a12>c12]2 f12g12
D ]0

E l8 [
E @4 o6 v12 
E d24a24>d24e24f24e24d24<a24f24e24d24e24f24
E a24>d24f24e24d24e24f24e24d24c24<a24>d24c24<a24f24d24
E c24<a24f24e24f24e24d24e24d24c24<b24g24>c24e24g24>c24
E e24g24b24a24b24>c24d24e12a24g24a24e24c24<a24e24c24
E <a24g24f24<f24a24>c24e24d24c24<a24d24e24f24a24>d24e24
E f24a24>c24d24e24f24a24>c24d24e24f24d24<b24g24f24d24
E <b24g24c24 << b24>c24e24g24b24>c24e24<e24g24b24>c24e24g24
E b24>c24<c24e24g24b24>c24e24g24b24>c24e24g24b24>c24<b24
E g24e24 
E o5 v10
E f6<a12>d12f12a12d6f12g6d6<b6b6>c12
E <e12g12b12>c12<g12b12>c12e12c12<g12>c12<g12e12a12>c12f12
E <a12>d12f12a12d6f12g12d6<b6b6g12>c12<c12e12g12>c12
E g12e12c12e12c12g12e12c12d12e12c12>f6<a12b12>c12d12
E e12f12g12<g12a12b12>d12c12<b12>c12e12<b12>g12e12b12g12
E e12f12g12<b12>d12c12<b12>d12c12<b12>a3c6d12e12g+3c12
E e12g+12>c12<b12g12a12e12g12b12>d6e6c12e12<a6b6 
E >[c4f6e12|<a12>c12]2 f12
E ]0

9 l8 r16 [ 
9 @4 o6 v10 
9 d24a24>d24e24f24e24d24<a24f24e24d24e24f24
9 a24>d24f24e24d24e24f24e24d24c24<a24>d24c24<a24f24d24
9 c24<a24f24e24f24e24d24e24d24c24<b24g24>c24e24g24>c24
9 e24g24b24a24b24>c24d24e12a24g24a24e24c24<a24e24c24
9 <a24g24f24<f24a24>c24e24d24c24<a24d24e24f24a24>d24e24
9 f24a24>c24d24e24f24a24>c24d24e24f24d24<b24g24f24d24
9 <b24g24c24 << b24>c24e24g24b24>c24e24<e24g24b24>c24e24g24
9 b24>c24<c24e24g24b24>c24e24g24b24>c24e24g24b24>c24<b24
9 g24e24 

9 o6v0
9 f6<a12>d12f12a12d6f12g6d6<b6b6>c12
9 <e12g12b12>c12<g12b12>c12e12c12<g12>c12<g12e12a12>c12f12
9 <a12>d12f12a12d6f12g12d6<b6b6g12>c12<c12e12g12>c12
9 g12e12c12e12c12g12e12c12d12e12c12>f6<a12b12>c12d12
9 e12f12g12<g12a12b12>d12c12<b12>c12e12<b12>g12e12b12g12
9 e12f12g12<b12>d12c12<b12>d12c12<b12>a3c6d12e12g+3c12
9 e12g+12>c12<b12g12a12e12g12b12>d6e6c12e12<a6b6 
9 >[c4f6e12|<a12>c12]2 f12
9 ]0

F l8 vb13vh12vs12 [ r16 r24r24r24r24r24r24r24r24r48
F h24r24 s24 r16r24r24r24r24r24r24r24r24r24r24r24r48 
F b24r24 h24r24 s24 
F r16r24r24r24r24r24r24r24r24r24r48 
F h24r24 s24 r16r24r24r24r24r24r24r24r12r24r24r48
F h24r24 s24s24s24s24
F r16r24r24r24r24r24r24r24r24r48
F h24r24 s24 r16r24r24r24r24r24r24r24r24r24r24r24r48 
F b24r24 h24r24 s24
F r16r24r24r24r24r24r24r24r24r24r24r24r48
F s24 
F r16r24r24r24r24r24r24r24r24r24r24r24r24r24r48 
F s24r24s24s24 
F v12vs11
F [)h24(h24h24h24 )s24(|h24h24h24]16 r24)s24s24( 
F [)h24(h24h24h24 )s24(h24h24h24 )h24( h24h24h24 |
F   )s24( )h24( m24 )h24(]4 s24s24s24s24 
F [)h24(h24h24h24 s24 h24h24h24]11 
F [s24]8 
F ]0
